icons/back_pain.svg

<svg width="48" height="48" viewBox="0 0 48 48" fill="none" xmlns="http://www.w3.org/2000/svg">
<path fill-rule="evenodd" clip-rule="evenodd" d="M32 30.8333C32 29.1764 33.3431 27.8333 35 27.8333C36.6568 27.8333 38 29.1764 38 30.8333V42.9999C38 43.5522 37.5523 43.9999 37 43.9999C36.4477 43.9999 36 43.5522 36 42.9999V30.8333C36 30.281 35.5523 29.8333 35 29.8333C34.4477 29.8333 34 30.281 34 30.8333V31.0555C34 31.6078 33.5523 32.0555 33 32.0555C32.4477 32.0555 32 31.6078 32 31.0555V30.8333Z" fill="black"/>
<path fill-rule="evenodd" clip-rule="evenodd" d="M29.4734 14C26.4635 14 24.3049 15.7816 22.9359 18.2165C21.5911 20.6081 21 23.6281 21 26.2819C21 27.0434 21.2522 27.8323 21.5372 28.5049C21.8328 29.2026 22.2174 29.8972 22.587 30.5011C22.6723 30.6404 22.7576 30.7762 22.8417 30.9074C22.9451 31.0685 23 31.2559 23 31.4473V41.1333C23 41.5481 23.3816 42 24 42C24.6184 42 25 41.5481 25 41.1333V31.9418C25 28.9717 25.9737 25.9949 26.7914 23.4951L26.8139 23.4264C26.9585 22.984 27.0982 22.5569 27.2294 22.1415C27.4382 21.48 27.6569 20.8532 27.8796 20.2665C28.0357 19.8551 28.4424 19.5942 28.8814 19.6236C29.3205 19.6531 29.6887 19.966 29.7884 20.3946L30.5052 23.4726C30.5802 23.7948 30.7721 24.0321 30.9942 24.1547L35.6191 25.1878C35.681 25.2016 35.7415 25.2213 35.7996 25.2466C36.1886 25.4156 36.714 25.2463 36.9256 24.6717C37.1344 24.1046 36.886 23.531 36.4952 23.3024L32.7966 22.6584C32.4012 22.5896 32.0853 22.291 31.9942 21.9001L30.3363 14.7802C30.2168 14.2671 29.8242 14 29.4734 14ZM21.1926 17.2363C22.7941 14.3879 25.5227 12 29.4734 12C30.8575 12 31.9782 13.0127 32.2842 14.3266L33.792 20.8017L36.98 21.3567C37.0581 21.3703 37.1343 21.3932 37.207 21.4247C38.7116 22.0785 39.356 23.8593 38.8024 25.3628C38.2485 26.8669 36.6262 27.7203 35.0998 27.1211L30.4464 26.0816C30.3845 26.0677 30.3241 26.0481 30.2659 26.0228C29.4935 25.6872 28.9215 25.0301 28.6499 24.2466C27.8285 26.7609 27 29.3861 27 31.9418V41.1333C27 42.7804 25.5907 44 24 44C22.4092 44 21 42.7804 21 41.1333V31.7373C20.9605 31.6741 20.9209 31.6101 20.8812 31.5452C20.4824 30.8937 20.0438 30.1067 19.6957 29.2853C19.3732 28.5243 19 27.4422 19 26.2819C19 23.3784 19.6389 19.9994 21.1926 17.2363Z" fill="black"/>
<path fill-rule="evenodd" clip-rule="evenodd" d="M10.117 10.0753C10.3762 9.58763 10.9817 9.40245 11.4694 9.66168L17.047 12.6266C17.3882 12.808 17.5944 13.1697 17.5766 13.5556C17.5588 13.9416 17.3202 14.2828 16.9638 14.432L15.2539 15.1479L18.38 16.8733C18.8635 17.1401 19.0391 17.7485 18.7723 18.232C18.5054 18.7155 17.8971 18.8911 17.4136 18.6243L12.4769 15.8996C12.1411 15.7143 11.9409 15.3532 11.9616 14.9702C11.9823 14.5872 12.2202 14.2498 12.574 14.1017L14.2449 13.4021L10.5306 11.4277C10.0429 11.1684 9.85776 10.563 10.117 10.0753Z" fill="black"/>
<path fill-rule="evenodd" clip-rule="evenodd" d="M9.83169 19.9784C9.94247 19.4179 10.4551 19.0511 10.9766 19.1591L14.6432 19.9182C14.9946 19.991 15.2755 20.2674 15.3723 20.6357C15.4691 21.0041 15.3657 21.4034 15.1041 21.6721L14.3066 22.4914L16.2447 22.9956C16.7604 23.1297 17.069 23.6882 16.9338 24.243C16.7987 24.7978 16.271 25.1387 15.7553 25.0046L12.1302 24.0615C11.7905 23.9731 11.526 23.6934 11.4394 23.331C11.3527 22.9685 11.4577 22.5806 11.7134 22.3179L12.4374 21.5742L10.5754 21.1887C10.0539 21.0807 9.72091 20.5388 9.83169 19.9784Z" fill="black"/>
<path fill-rule="evenodd" clip-rule="evenodd" d="M33 10C34.1046 10 35 9.10457 35 8C35 6.89543 34.1046 6 33 6C31.8954 6 31 6.89543 31 8C31 9.10457 31.8954 10 33 10ZM33 12C35.2091 12 37 10.2091 37 8C37 5.79086 35.2091 4 33 4C30.7908 4 29 5.79086 29 8C29 10.2091 30.7908 12 33 12Z" fill="black"/>
</svg>

<svg
  xmlns="http://www.w3.org/2000/svg"
  width="24"
  height="24"
  viewBox="0 0 24 24"
  fill="none"
  stroke="currentColor"
  stroke-width="2"
  stroke-linecap="round"
  stroke-linejoin="round"
>
  <path
    fill-rule="evenodd"
    d="M32 30.833a3 3 0 1 1 6 0V43a1 1 0 1 1-2 0V30.833a1 1 0 1 0-2 0v.223a1 1 0 1 1-2 0z"
    clip-rule="evenodd"
  />
  <path
    fill-rule="evenodd"
    d="M29.473 14c-3.01 0-5.168 1.782-6.537 4.217C21.59 20.608 21 23.627 21 26.282c0 .761.252 1.55.537 2.223.296.698.68 1.392 1.05 1.996q.128.21.255.406a1 1 0 0 1 .158.54v9.686c0 .415.382.867 1 .867s1-.452 1-.867v-9.191c0-2.97.974-5.947 1.791-8.447l.023-.069q.218-.663.415-1.284.316-.995.65-1.875a1 1 0 0 1 1.91.128l.716 3.078c.075.322.267.56.49.682l4.624 1.033a1 1 0 0 1 .18.059c.39.169.915 0 1.127-.575.208-.567-.04-1.141-.43-1.37l-3.7-.644a1 1 0 0 1-.802-.758l-1.658-7.12c-.12-.513-.512-.78-.863-.78m-8.28 3.236c1.601-2.848 4.33-5.236 8.28-5.236 1.385 0 2.505 1.013 2.811 2.327l1.508 6.475 3.188.555q.117.02.227.068c1.505.653 2.149 2.434 1.595 3.938-.553 1.504-2.176 2.357-3.702 1.758l-4.654-1.04a1 1 0 0 1-.18-.058 2.99 2.99 0 0 1-1.616-1.776c-.822 2.514-1.65 5.14-1.65 7.695v9.191C27 42.78 25.59 44 24 44s-3-1.22-3-2.867v-9.396q-.06-.094-.119-.192a17.5 17.5 0 0 1-1.185-2.26c-.323-.76-.696-1.843-.696-3.003 0-2.904.639-6.283 2.193-9.046"
    clip-rule="evenodd"
  />
  <path
    fill-rule="evenodd"
    d="M10.117 10.075a1 1 0 0 1 1.352-.413l5.578 2.965a1 1 0 0 1-.083 1.805l-1.71.716 3.126 1.725a1 1 0 0 1-.966 1.751L12.477 15.9a1 1 0 0 1 .097-1.798l1.67-.7-3.713-1.974a1 1 0 0 1-.414-1.353"
    clip-rule="evenodd"
  />
  <path
    fill-rule="evenodd"
    d="M9.832 19.978c.11-.56.623-.927 1.145-.819l3.666.76c.352.072.632.348.73.717.096.368-.007.767-.269 1.036l-.797.82 1.938.504c.515.134.824.692.689 1.247s-.663.896-1.179.762l-3.625-.944a.98.98 0 0 1-.69-.73c-.087-.363.018-.75.273-1.013l.724-.744-1.862-.385c-.521-.108-.854-.65-.743-1.21"
    clip-rule="evenodd"
  />
  <path
    fill-rule="evenodd"
    d="M33 10a2 2 0 1 0 0-4 2 2 0 0 0 0 4m0 2a4 4 0 1 0 0-8 4 4 0 0 0 0 8"
    clip-rule="evenodd"
  />
</svg>
